assets/images/userIcon.svg

<svg width="24" height="12" viewBox="0 0 24 12" fill="none" xmlns="http://www.w3.org/2000/svg">
<path d="M23.3378 2.91607L12.8775 0.345065C12.3075 0.204965 11.6925 0.204965 11.1229 0.345065L0.662249 2.91607C-0.220501 3.13297 -0.220501 4.06687 0.662249 4.28377L2.48587 4.73197C2.08575 5.12767 1.83975 5.61037 1.81537 6.13897C1.45425 6.30457 1.2 6.60336 1.2 6.96007C1.2 7.28347 1.413 7.55557 1.71975 7.72957L0.762374 11.176C0.679124 11.4757 0.964124 11.7601 1.34775 11.7601H3.45187C3.83587 11.7601 4.12087 11.4757 4.03762 11.176L3.08025 7.72957C3.387 7.55557 3.6 7.28347 3.6 6.96007C3.6 6.61297 3.35737 6.32257 3.01275 6.15397C3.04125 5.70337 3.32925 5.30497 3.78862 5.05237L11.1225 6.85507C11.4622 6.93847 12.114 7.04257 12.8771 6.85507L23.3378 4.28407C24.2209 4.06687 24.2209 3.13327 23.3378 2.91607ZM13.2296 7.77277C12.1597 8.03557 11.2481 7.89037 10.77 7.77277L5.33175 6.43627L4.8 9.84007C4.8 10.9006 8.0235 11.7601 12 11.7601C15.9765 11.7601 19.2 10.9006 19.2 9.84007L18.6683 6.43597L13.2296 7.77277Z" fill="#9D2235"/>
</svg>

<svg xmlns="http://www.w3.org/2000/svg" width="24" height="12" fill="none"><path fill="#9D2235" d="M23.338 2.916 12.878.346a3.7 3.7 0 0 0-1.755 0L.663 2.915c-.884.217-.884 1.15 0 1.368l1.823.448c-.4.396-.646.878-.67 1.407-.362.166-.616.464-.616.821 0 .323.213.596.52.77l-.958 3.446c-.083.3.202.584.586.584h2.104c.384 0 .669-.284.586-.584L3.08 7.73c.307-.174.52-.447.52-.77 0-.347-.243-.637-.587-.806.028-.45.316-.849.776-1.102l7.334 1.803c.34.083.991.188 1.754 0l10.46-2.57c.884-.218.884-1.152 0-1.369M13.23 7.773a5.2 5.2 0 0 1-2.46 0L5.332 6.436 4.8 9.84c0 1.06 3.224 1.92 7.2 1.92s7.2-.86 7.2-1.92l-.532-3.404z"/></svg>
